X:103
T:Dance of the Honey Bees, The
R:hornpipe
C:Charlie Lennon
Z:id:hn-hornpipe-103
M:C|
L:1/8
K:D
AG|:F2EF DFAF|(3GAG FG E3F|GFGA (3Bcd ed|cege cAGE|
FGEF DFAF|G2FG E3F|G2GA (3Bcd ed|1 cAGE D2AG:|2 cAGE DEFA||
|:dAaA fAdA|GFEF DEFA|Beed Bded|(3Bcd ef gece|
dAaA fAdA|GFEF DEFA|Beed (3Bcd ed|1 cAGE DEFA:|2 cAGE D2||

